src/assets/icons/defective.svg

<?xml version="1.0" encoding="UTF-8"?>
<svg width="29px" height="24px" viewBox="0 0 29 24" version="1.1" xmlns="http://www.w3.org/2000/svg" xmlns:xlink="http://www.w3.org/1999/xlink">
    <!-- Generator: Sketch 42 (36781) - http://www.bohemiancoding.com/sketch -->
    <title>Report_defective</title>
    <desc>Created with Sketch.</desc>
    <defs></defs>
    <g id="Report" stroke="none" stroke-width="1" fill="none" fill-rule="evenodd">
        <g id="MVP-1.1---Report-User" transform="translate(-723.000000, -590.000000)" fill="#333333">
            <g id="Overlay-Report-User" transform="translate(97.000000, 186.000000)">
                <g id="Group" transform="translate(461.000000, 262.000000)">
                    <path d="M191.734651,162.710623 C191.734651,163.524324 191.075102,164.184158 190.261117,164.184158 L168.180001,164.184158 C167.366017,164.184158 166.706467,163.524324 166.706467,162.710623 L166.706467,162.244474 C166.706467,161.430773 167.366017,160.771224 168.180001,160.771224 L190.261117,160.771224 C191.075102,160.771224 191.734651,161.430773 191.734651,162.244474 L191.734651,162.710623 Z M170.403813,156.840661 C170.403813,156.026961 171.063362,155.367411 171.877347,155.367411 L186.563772,155.367411 C187.377757,155.367411 188.037306,156.026961 188.037306,156.840661 L188.037306,157.306811 C188.037306,158.120511 187.377757,158.780345 186.563772,158.780345 L171.877347,158.780345 C171.063362,158.780345 170.403813,158.120511 170.403813,157.306811 L170.403813,156.840661 Z M173.268402,150.732646 L173.43137,150.190559 C173.60742,149.608938 174.074992,149.303765 174.333237,149.176348 C174.617649,149.03784 174.934483,148.967591 175.275207,148.967591 C175.456946,148.967591 175.645511,148.987784 175.851993,149.031014 L176.229122,149.102401 C176.492203,149.149329 176.848286,149.208202 177.258691,149.244891 C177.755842,149.294948 178.241616,149.309453 178.701509,149.283571 C179.275451,149.255699 179.800758,149.176064 180.257807,149.048079 C181.213144,148.786421 182.047322,148.256563 182.597089,147.568288 C182.677862,147.470734 182.747827,147.370053 182.813526,147.274491 C182.837985,147.238655 182.861307,147.204241 182.885197,147.172103 C182.907097,147.142524 182.92729,147.111523 182.945493,147.079385 L183.120974,146.764826 C183.133488,146.742642 183.14458,146.720173 183.154819,146.69742 L183.292474,146.389403 C183.59651,145.687476 183.866985,145.161031 184.119258,144.779636 C184.124661,144.771104 184.13035,144.762287 184.135469,144.753754 C184.278528,144.519968 184.4031,144.389708 184.500369,144.305807 C184.53336,144.276228 184.555544,144.261723 184.566636,144.255182 L184.825735,144.242099 C184.833414,144.246365 184.843368,144.252622 184.853038,144.260301 C184.898829,144.301825 185.020557,144.430379 185.165322,144.732992 C185.30127,145.052671 185.57203,145.882014 185.314069,146.965336 C185.31094,146.978134 185.27027,147.154185 185.18324,147.455092 L184.973913,148.041832 L184.92215,148.155881 C184.83313,148.353831 184.741265,148.558892 184.620959,148.773907 C184.317492,149.334765 183.867838,149.911836 183.353907,150.399316 C182.807838,150.918367 182.130655,151.376269 181.395167,151.724104 C180.750407,152.029277 180.017479,152.271595 179.214587,152.444517 C178.601396,152.578475 177.973416,152.663514 177.288554,152.705038 C176.97172,152.726653 176.654886,152.736892 176.320703,152.736892 C176.178497,152.736892 176.051081,152.734901 175.950115,152.733195 L175.430496,152.716983 C174.663439,152.680863 173.969191,152.394745 173.567318,151.945091 C173.249631,151.597256 173.140417,151.156135 173.268402,150.732646 L173.268402,150.732646 Z M186.112127,151.918072 C186.112127,152.818518 185.379768,153.573914 184.479322,153.573914 C184.364704,153.573914 184.256059,153.660944 184.156231,153.660944 L181.29022,153.660944 C181.578044,153.376533 181.859042,153.416635 182.124682,153.290925 C183.021999,152.866868 183.853618,152.290935 184.529379,151.648735 C184.867828,151.327635 185.177552,150.974396 185.453146,150.6149 C185.860707,150.918936 186.112127,151.394756 186.112127,151.918072 L186.112127,151.918072 Z M190.32255,159.064756 C192.075945,159.064756 193.441119,160.385278 193.441119,162.138673 L193.441119,162.633548 C193.441119,164.386943 192.075945,165.890625 190.32255,165.890625 L168.24371,165.890625 C166.490315,165.890625 165,164.386943 165,162.633548 L165,162.138673 C165,160.385278 166.490315,159.064756 168.24371,159.064756 L169.231754,159.064756 C168.929709,158.495934 168.697345,157.900662 168.697345,157.287187 L168.697345,156.792027 C168.697345,155.038632 170.178559,153.660944 171.931954,153.660944 L172.889566,153.660944 C172.671707,153.376533 172.474042,153.306852 172.30112,153.113168 C171.584119,152.329046 171.332984,151.236907 171.634744,150.240046 L171.797427,149.698243 C172.06648,148.808605 172.700148,148.079943 173.582108,147.643941 C174.36566,147.26283 175.266106,147.164708 176.185892,147.357823 L176.537993,147.424091 C176.758696,147.463624 177.066429,147.514534 177.420236,147.546103 C177.84344,147.588765 178.222845,147.600995 178.612204,147.57938 C179.059298,147.557764 179.468566,147.4969 179.802749,147.403329 C180.629817,147.176938 181.078902,146.734678 181.273724,146.491222 C181.329184,146.423817 181.367864,146.365513 181.405122,146.31119 C181.430434,146.273932 181.455178,146.237528 181.480206,146.202545 L181.612742,145.965915 L181.731057,145.701412 C182.07235,144.91274 182.378092,144.320881 182.687532,143.850464 C182.89373,143.515997 183.124103,143.238696 183.371825,143.026241 C183.689228,142.737279 184.060953,142.572321 184.457707,142.552127 L184.775679,142.5362 C184.801276,142.534778 184.827441,142.53421 184.853323,142.53421 C185.12778,142.53421 185.545011,142.611001 185.975894,142.9759 C186.266562,143.237558 186.508312,143.581696 186.714225,144.015992 C186.718207,144.024809 186.722473,144.034194 186.726455,144.043295 C187.151365,145.027927 187.242377,146.234115 186.975884,147.352419 C186.975884,147.352419 186.925543,147.573691 186.814622,147.955087 C186.810072,147.971583 186.804384,147.987794 186.79898,148.004005 L186.568038,148.648481 C186.55979,148.671519 186.549836,148.693987 186.539312,148.715887 L186.474467,148.855248 C186.433227,148.946829 186.383455,149.046088 186.335958,149.147054 C187.246074,149.75996 187.80096,150.790097 187.80096,151.914944 C187.80096,152.565676 187.59334,153.171188 187.270534,153.685119 C188.702544,153.994274 189.743773,155.269289 189.743773,156.792027 L189.743773,157.287187 C189.743773,157.900662 189.637119,158.495934 189.33479,159.064756 L190.32255,159.064756 Z M167.844112,146.550579 C167.372843,146.550579 166.990878,146.168615 166.990878,145.697345 C166.990878,145.226076 167.372843,144.844112 167.844112,144.844112 L168.697345,144.844112 C169.168615,144.844112 169.550579,145.226076 169.550579,145.697345 C169.550579,146.168615 169.168615,146.550579 168.697345,146.550579 L167.844112,146.550579 Z M173.532336,143.706467 C173.061066,143.706467 172.679102,143.324503 172.679102,142.853234 C172.679102,142.381964 173.061066,142 173.532336,142 L174.385569,142 C174.856838,142 175.238803,142.381964 175.238803,142.853234 C175.238803,143.324503 174.856838,143.706467 174.385569,143.706467 L173.532336,143.706467 Z M190.597007,152.523214 C190.125737,152.523214 189.743773,152.14125 189.743773,151.66998 C189.743773,151.198711 190.125737,150.816747 190.597007,150.816747 L191.45024,150.816747 C191.92151,150.816747 192.303474,151.198711 192.303474,151.66998 C192.303474,152.14125 191.92151,152.523214 191.45024,152.523214 L190.597007,152.523214 Z" id="Report_defective"></path>
                </g>
            </g>
        </g>
    </g>
</svg>

<svg width="29" height="24" viewBox="0 0 29 24" xmlns="http://www.w3.org/2000/svg"><g id="Report" fill="none" fill-rule="evenodd"><g id="MVP-1.1---Report-User" transform="translate(-723 -590)" fill="#333"><g id="Overlay-Report-User" transform="translate(97 186)"><g id="Group" transform="translate(461 262)"><path d="M191.735 162.71c0 .814-.66 1.474-1.474 1.474H168.18c-.814 0-1.474-.66-1.474-1.473v-.467c0-.813.66-1.473 1.474-1.473h22.081c.814 0 1.474.66 1.474 1.473v.467zm-21.331-5.87c0-.813.66-1.473 1.473-1.473h14.687c.814 0 1.473.66 1.473 1.474v.466c0 .814-.66 1.473-1.473 1.473h-14.687c-.814 0-1.473-.66-1.473-1.473v-.466zm2.864-6.107l.163-.542c.176-.582.644-.887.902-1.015.285-.138.601-.208.942-.208.182 0 .37.02.577.063l.377.071c.263.047.62.106 1.03.143.497.05.983.064 1.443.039a7.096 7.096 0 0 0 1.556-.236c.955-.262 1.79-.791 2.34-1.48.08-.097.15-.198.216-.294.024-.035.047-.07.071-.102a.908.908 0 0 0 .06-.093l.176-.314a.83.83 0 0 0 .034-.068l.137-.308c.305-.702.575-1.228.827-1.61l.016-.025c.144-.234.268-.364.365-.448a.427.427 0 0 1 .067-.05l.259-.014c.007.004.017.01.027.018.046.042.168.17.312.473.136.32.407 1.149.15 2.232-.004.013-.045.19-.132.49l-.21.587-.05.114c-.09.198-.182.403-.302.618a6.742 6.742 0 0 1-1.267 1.625 7.561 7.561 0 0 1-1.959 1.325c-.645.305-1.378.548-2.18.72-.614.134-1.242.22-1.926.261a14.099 14.099 0 0 1-1.339.028l-.52-.016c-.767-.036-1.46-.322-1.863-.772-.317-.348-.427-.789-.299-1.212zm12.844 1.185c0 .9-.732 1.656-1.633 1.656-.114 0-.223.087-.323.087h-2.866c.288-.284.569-.244.835-.37a9.32 9.32 0 0 0 2.404-1.642c.339-.321.649-.675.924-1.034.408.304.66.78.66 1.303zm4.21 7.147c1.754 0 3.12 1.32 3.12 3.074v.495c0 1.753-1.366 3.257-3.12 3.257h-22.078c-1.754 0-3.244-1.504-3.244-3.257v-.495c0-1.754 1.49-3.074 3.244-3.074h.988c-.302-.57-.535-1.164-.535-1.778v-.495c0-1.753 1.482-3.131 3.235-3.131h.958c-.218-.284-.416-.354-.589-.548a2.982 2.982 0 0 1-.666-2.873l.162-.542c.27-.89.903-1.618 1.785-2.054.784-.381 1.684-.48 2.604-.286l.352.066c.22.04.528.09.882.122.423.043.803.055 1.192.033a5.5 5.5 0 0 0 1.19-.176c.828-.226 1.277-.668 1.472-.912.055-.067.094-.125.131-.18l.075-.108.133-.237.118-.265c.341-.788.647-1.38.957-1.85.206-.335.436-.612.684-.825.317-.289.689-.454 1.086-.474l.318-.016.077-.002c.275 0 .692.077 1.123.442.29.262.532.606.738 1.04l.012.027c.425.985.516 2.191.25 3.31 0 0-.05.22-.161.602l-.016.049-.231.644a.705.705 0 0 1-.029.068l-.065.14c-.04.09-.09.19-.138.291a3.327 3.327 0 0 1 1.465 2.768 3.33 3.33 0 0 1-.53 1.77c1.432.31 2.473 1.584 2.473 3.107v.495c0 .614-.107 1.209-.41 1.778h.989zm-22.478-12.514a.853.853 0 1 1 0-1.707h.853a.853.853 0 1 1 0 1.707h-.853zm5.688-2.845a.853.853 0 1 1 0-1.706h.854a.853.853 0 1 1 0 1.706h-.854zm17.065 8.817a.853.853 0 1 1 0-1.706h.853a.853.853 0 1 1 0 1.706h-.853z" id="Report_defective"/></g></g></g></g></svg>
